X: 104
T: the Star of Munster
R: reel
Z: 2012 John Chambers <jc@trillian.mit.edu>
B: "100 Essential Irish Session Tunes" 1995 Dave Mallinson, ed.
M: 4/4
L: 1/8
K: Ador
ed !segno!|\
"Am"c2Ac "G"B2GB | "F"AGEF "Em"GEDF | "Am"EAAB cBcd | eaaf "Em"gfed |
"Am"cBAc "G"BAGB | "F"AGEF "Em"GEDF | "Am"EAAB cded | "F"cA"G"BG "Am"A2 :|
Bd |:\
"Am"eaab ageg | agbg agef | "G"gfga gfef | geaf gfed |
"Am"eaab ageg | agbg agef | "G"g2ge "D"a2ag | "G"b2ba gfed "D.S.":|

%%sep 2 1 500
%%sep 1 1 500

